packages/tokens/icons/cloudUp/size32Px.svg

<svg viewBox="0 0 32 32" fill="none" xmlns="http://www.w3.org/2000/svg" width="1em" height="1em"><path d="M16.4427 26.5L16.4427 16.5" stroke="currentColor" stroke-linecap="round" stroke-linejoin="round"/><path d="M11.5001 20.4999L16.4428 15.4999L21.5001 20.5571" stroke="currentColor" stroke-linecap="round" stroke-linejoin="round"/><path d="M25 20.1154C27.8125 20.1154 29.5 17.6965 29.5 15.1308C29.5 12.565 27.5312 10.452 24.9999 10.1766C25.0081 6.54295 21.9471 3.5 18.25 3.5C14.9051 3.5 12.1285 5.89553 11.5932 9.03921C8.91977 8.9964 6.51878 10.8879 5.98715 13.471C4.10684 13.4105 2.5 14.9382 2.5 16.7923C2.5 18.6276 4.01104 20.1154 5.875 20.1154H8" stroke="currentColor" stroke-linecap="round" stroke-linejoin="round"/></svg>

<svg xmlns="http://www.w3.org/2000/svg" fill="none" viewBox="0 0 32 32" width="1em" height="1em"><path stroke="currentColor" stroke-linecap="round" stroke-linejoin="round" d="M16.443 26.5v-10m-4.943 4 4.943-5 5.057 5.057"/><path stroke="currentColor" stroke-linecap="round" stroke-linejoin="round" d="M25 20.115c2.813 0 4.5-2.418 4.5-4.984s-1.969-4.679-4.5-4.954c.008-3.634-3.053-6.677-6.75-6.677-3.345 0-6.121 2.396-6.657 5.54-2.673-.044-5.074 1.848-5.606 4.431-1.88-.06-3.487 1.467-3.487 3.321 0 1.836 1.511 3.323 3.375 3.323H8"/></svg>
